X: 42438
T: Westcoaster, The
R: hornpipe
M: 4/4
K: Gmajor
|:B,A,|G,(B,D)G Bde(f|g)dBG FGDB,|CEA(B c)BAG|F(dA)F (3DED (3CB,A,|
G,(B,D)G Bde(f|g)dBG FGD(B,|C)EA(c B)AGF|ABA G FG:|
|:(Bc)|(dg) ~g2 agfg|(dg) ~g2 agfg|(ea) ~a2 ba^ga|(ea) ~a2 (ba) (3gfe|
(dg) ~g2 agfg|dgfg dBGD|A,(EAc) BAGF|(FG) (GF) G2:|

